; generated by Slic3r 1.3.0 on 2022-01-12 at 11:36:27

; external perimeters extrusion width = 0.55mm (5.57mm^3/s)
; perimeters extrusion width = 0.58mm (11.78mm^3/s)
; infill extrusion width = 0.58mm (15.71mm^3/s)
; solid infill extrusion width = 0.58mm (3.93mm^3/s)
; top infill extrusion width = 0.58mm (2.95mm^3/s)

M107
M190 S65 ; set bed temperature and wait for it to be reached
M104 S205 ; set temperature
G28 ; home all axes
G1 Z5 F5000 ; lift nozzle

; Filament gcode

M109 S205 ; set temperature and wait for it to be reached
G21 ; set units to millimeters
G90 ; use absolute coordinates
M82 ; use absolute distances for extrusion
G92 E0
G1 Z0.500 F7800.000
G1 E-2.00000 F2400.00000
G92 E0
G1 X64.650 Y65.654 F7800.000
G1 E2.00000 F2400.00000
G1 F1800
G1 X66.412 Y64.115 E2.43418
G1 X68.587 Y63.254 E2.86836
G1 X70.000 Y63.107 E3.13191
G1 X130.000 Y63.107 E14.26614
G1 X132.306 Y63.504 E14.70032
G1 X134.346 Y64.650 E15.13450
G1 X135.885 Y66.412 E15.56867
G1 X136.746 Y68.587 E16.00285
G1 X136.893 Y70.000 E16.26640
G1 X136.893 Y130.000 E27.40064
G1 X136.496 Y132.306 E27.83481
G1 X135.350 Y134.346 E28.26899
G1 X133.588 Y135.885 E28.70317
G1 X131.413 Y136.746 E29.13735
G1 X130.000 Y136.893 E29.40090
G1 X70.000 Y136.893 E40.53513
G1 X67.694 Y136.496 E40.96931
G1 X65.654 Y135.350 E41.40349
G1 X64.115 Y133.588 E41.83767
G1 X63.254 Y131.413 E42.27184
G1 X63.107 Y130.000 E42.53539
G1 X63.107 Y70.000 E53.66963
G1 X63.504 Y67.694 E54.10380
G1 X64.613 Y65.720 E54.52407
G1 E52.52407 F2400.00000
G92 E0
G1 X78.288 Y125.881 F7800.000
G1 E2.00000 F2400.00000
G1 F1800
G1 X77.948 Y126.702 E2.16492
G1 X77.407 Y127.407 E2.32983
G1 X76.702 Y127.948 E2.49475
G1 X75.881 Y128.288 E2.65967
G1 X75.000 Y128.404 E2.82459
G1 X74.119 Y128.288 E2.98950
G1 X73.298 Y127.948 E3.15442
G1 X72.593 Y127.407 E3.31934
G1 X72.052 Y126.702 E3.48426
G1 X71.712 Y125.881 E3.64917
G1 X71.596 Y125.000 E3.81409
G1 X71.712 Y124.119 E3.97901
G1 X72.052 Y123.298 E4.14393
G1 X72.593 Y122.593 E4.30884
G1 X73.298 Y122.052 E4.47376
G1 X74.119 Y121.712 E4.63868
G1 X74.251 Y121.694 E4.66343
G1 X75.000 Y121.596 E4.80360
G1 X75.881 Y121.712 E4.96851
G1 X76.702 Y122.052 E5.13343
G1 X77.407 Y122.593 E5.29835
G1 X77.948 Y123.298 E5.46326
G1 X78.288 Y124.119 E5.62818
G1 X78.404 Y125.000 E5.79310
G1 X78.298 Y125.807 E5.94410
G1 X78.288 Y125.881 F7800.000
G1 E3.94410 F2400.00000
G92 E0
G1 X71.956 Y128.044 F7800.000
G1 E2.00000 F2400.00000
G1 F1800
G1 X72.217 Y128.244 E2.06096
G1 X72.093 Y128.607 E2.13218
G1 X71.393 Y128.607 E2.26220
G1 X71.393 Y127.907 E2.39221
G1 X71.756 Y127.783 E2.46344
G1 X71.910 Y127.984 E2.51047
G1 E0.51047 F2400.00000
G92 E0
G1 X121.796 Y125.000 F7800.000
G1 E2.00000 F2400.00000
G1 F1800
G1 X121.905 Y124.171 E2.15523
G1 X122.225 Y123.398 E2.31046
G1 X122.734 Y122.734 E2.46569
G1 X123.398 Y122.225 E2.62091
G1 X124.171 Y121.905 E2.77614
G1 X125.000 Y121.796 E2.93137
G1 X125.829 Y121.905 E3.08660
G1 X126.602 Y122.225 E3.24183
G1 X127.266 Y122.734 E3.39706
G1 X127.775 Y123.398 E3.55229
G1 X128.095 Y124.171 E3.70751
G1 X128.204 Y125.000 E3.86274
G1 X128.095 Y125.829 E4.01797
G1 X127.775 Y126.602 E4.17320
G1 X127.266 Y127.266 E4.32843
G1 X126.602 Y127.775 E4.48366
G1 X125.829 Y128.095 E4.63889
G1 X125.000 Y128.204 E4.79411
G1 X124.171 Y128.095 E4.94934
G1 X123.398 Y127.775 E5.10457
G1 X122.734 Y127.266 E5.25980
G1 X122.225 Y126.602 E5.41503
G1 X121.905 Y125.829 E5.57026
G1 X121.805 Y125.074 E5.71157
G1 X121.796 Y125.000 F7800.000
G1 E3.71157 F2400.00000
G92 E0
G1 X127.458 Y128.244 F7800.000
G1 E2.00000 F2400.00000
G1 F1800
G1 X127.902 Y127.902 E2.10406
G1 X128.244 Y127.458 E2.20813
G1 X128.607 Y127.581 E2.27935
G1 X128.607 Y128.607 E2.46981
G1 X127.581 Y128.607 E2.66027
G1 X127.482 Y128.315 E2.71758
G1 E0.71758 F2400.00000
G92 E0
G1 X128.244 Y72.217 F7800.000
G1 E2.00000 F2400.00000
G1 F1800
G1 X128.044 Y71.956 E2.06096
G1 X127.783 Y71.756 E2.12191
G1 X127.907 Y71.393 E2.19313
G1 X128.607 Y71.393 E2.32315
G1 X128.607 Y72.093 E2.45316
G1 X128.315 Y72.193 E2.51047
G1 X127.536 Y72.760 F7800.000
G1 F1800
G1 X127.948 Y73.298 E2.63624
G1 X128.288 Y74.119 E2.80116
G1 X128.404 Y75.000 E2.96608
G1 X128.288 Y75.881 E3.13100
G1 X127.948 Y76.702 E3.29591
G1 X127.407 Y77.407 E3.46083
G1 X126.702 Y77.948 E3.62575
G1 X125.881 Y78.288 E3.79066
G1 X125.000 Y78.404 E3.95558
G1 X124.119 Y78.288 E4.12050
G1 X123.298 Y77.948 E4.28542
G1 X122.593 Y77.407 E4.45033
G1 X122.052 Y76.702 E4.61525
G1 X121.712 Y75.881 E4.78017
G1 X121.596 Y75.000 E4.94509
G1 X121.712 Y74.119 E5.11000
G1 X122.052 Y73.298 E5.27492
G1 X122.593 Y72.593 E5.43984
G1 X123.298 Y72.052 E5.60476
G1 X124.119 Y71.712 E5.76967
G1 X125.000 Y71.596 E5.93459
G1 X125.881 Y71.712 E6.09951
G1 X126.702 Y72.052 E6.26443
G1 X127.407 Y72.593 E6.42934
G1 X127.490 Y72.701 E6.45457
G1 X128.026 Y72.660 F7800.000
G1 E4.45457 F2400.00000
G92 E0
G1 X118.228 Y112.894 F7800.000
G1 E2.00000 F2400.00000
G1 F1800
G1 X119.278 Y113.329 E2.21098
G1 X120.180 Y114.021 E2.42195
G1 X120.872 Y114.923 E2.63293
G1 X121.308 Y115.974 E2.84391
G1 X121.456 Y117.101 E3.05489
G1 X121.308 Y118.228 E3.26587
G1 X120.863 Y119.301 E3.48144
G1 X120.123 Y120.225 E3.70102
G1 X119.278 Y120.873 E3.89855
G1 X118.205 Y121.317 E4.11412
G1 X117.029 Y121.447 E4.33370
G1 X115.974 Y121.308 E4.53123
G1 X114.923 Y120.872 E4.74221
G1 X114.021 Y120.180 E4.95318
G1 X113.329 Y119.278 E5.16416
G1 X112.894 Y118.228 E5.37514
G1 X112.746 Y117.101 E5.58612
G1 X112.894 Y115.974 E5.79710
G1 X113.329 Y114.923 E6.00807
G1 X114.021 Y114.021 E6.21905
G1 X114.943 Y113.314 E6.43462
G1 X116.046 Y112.885 E6.65420
G1 X117.101 Y112.746 E6.85173
G1 X118.154 Y112.884 E7.04879
G1 X117.995 Y113.764 F7800.000
G1 F1800
G1 X118.828 Y114.109 E7.21615
G1 X119.544 Y114.658 E7.38351
G1 X120.093 Y115.374 E7.55087
G1 X120.438 Y116.207 E7.71822
G1 X120.556 Y117.101 E7.88558
G1 X120.438 Y117.995 E8.05295
G1 X120.087 Y118.842 E8.22310
G1 X119.494 Y119.582 E8.39906
G1 X118.828 Y120.093 E8.55476
G1 X117.981 Y120.444 E8.72492
G1 X117.039 Y120.547 E8.90087
G1 X116.207 Y120.438 E9.05658
G1 X115.374 Y120.093 E9.22393
G1 X114.658 Y119.544 E9.39129
G1 X114.109 Y118.828 E9.55865
G1 X113.764 Y117.995 E9.72601
G1 X113.646 Y117.101 E9.89337
G1 X113.764 Y116.207 E10.06073
G1 X114.109 Y115.374 E10.22809
G1 X114.658 Y114.658 E10.39545
G1 X115.385 Y114.100 E10.56560
G1 X116.269 Y113.756 E10.74156
G1 X117.101 Y113.646 E10.89726
G1 X117.921 Y113.754 E11.05070
G1 X117.762 Y114.634 F7800.000
G1 F1800
G1 X118.378 Y114.889 E11.17444
G1 X118.907 Y115.295 E11.29818
G1 X119.313 Y115.824 E11.42192
G1 X119.568 Y116.440 E11.54566
G1 X119.655 Y117.101 E11.66940
G1 X119.568 Y117.762 E11.79314
G1 X119.311 Y118.383 E11.91789
G1 X118.865 Y118.939 E12.05022
G1 X118.378 Y119.313 E12.16409
G1 X117.757 Y119.570 E12.28884
G1 X117.048 Y119.648 E12.42117
G1 X116.440 Y119.568 E12.53504
G1 X115.824 Y119.313 E12.65878
G1 X115.295 Y118.907 E12.78252
G1 X114.889 Y118.378 E12.90626
G1 X114.634 Y117.762 E13.03000
G1 X114.547 Y117.101 E13.15374
G1 X114.634 Y116.440 E13.27748
G1 X114.889 Y115.824 E13.40122
G1 X115.295 Y115.295 E13.52496
G1 X115.828 Y114.885 E13.64971
G1 X116.492 Y114.627 E13.78204
G1 X117.101 Y114.547 E13.89591
G1 X117.688 Y114.624 E14.00574
G1 X117.762 Y114.634 F7800.000
G1 E12.00574 F2400.00000
G92 E0
G1 X106.798 Y106.798 F7800.000
G1 E2.00000 F2400.00000
G1 F1800
G1 X93.227 Y106.798 E4.51834
G1 X93.227 Y93.227 E7.03668
G1 X106.798 Y93.227 E9.55502
G1 X106.798 Y106.723 E12.05944
G1 X105.905 Y105.905 F7800.000
G1 F1800
G1 X94.120 Y105.905 E14.24647
G1 X94.120 Y94.120 E16.43349
G1 X105.905 Y94.120 E18.62051
G1 X105.905 Y105.830 E20.79362
G1 X105.013 Y105.013 F7800.000
G1 F1800
G1 X95.013 Y105.013 E22.64932
G1 X95.013 Y95.013 E24.50503
G1 X105.013 Y95.013 E26.36073
G1 X105.013 Y104.938 E28.20252
G1 X105.142 Y105.496 F7800.000
G1 E26.20252 F2400.00000
G92 E0
G1 X85.979 Y85.979 F7800.000
G1 E2.00000 F2400.00000
G1 F1800
G1 X85.077 Y86.671 E2.21098
G1 X84.026 Y87.106 E2.42195
G1 X82.899 Y87.254 E2.63293
G1 X81.772 Y87.106 E2.84391
G1 X80.722 Y86.671 E3.05489
G1 X79.820 Y85.979 E3.26587
G1 X79.127 Y85.077 E3.47684
G1 X78.692 Y84.026 E3.68782
G1 X78.544 Y82.899 E3.89880
G1 X78.683 Y81.844 E4.09633
G1 X79.112 Y80.741 E4.31591
G1 X79.820 Y79.820 E4.53148
G1 X80.741 Y79.112 E4.74705
G1 X81.844 Y78.683 E4.96663
G1 X82.899 Y78.544 E5.16416
G1 X84.026 Y78.692 E5.37514
G1 X85.077 Y79.127 E5.58612
G1 X85.979 Y79.820 E5.79710
G1 X86.671 Y80.722 E6.00807
G1 X87.106 Y81.772 E6.21905
G1 X87.254 Y82.899 E6.43003
G1 X87.106 Y84.026 E6.64101
G1 X86.671 Y85.077 E6.85199
G1 X86.024 Y85.919 E7.04905
G1 X85.342 Y85.342 F7800.000
G1 F1800
G1 X84.626 Y85.891 E7.21640
G1 X83.793 Y86.236 E7.38376
G1 X82.899 Y86.354 E7.55112
G1 X82.005 Y86.236 E7.71848
G1 X81.172 Y85.891 E7.88584
G1 X80.456 Y85.342 E8.05320
G1 X79.907 Y84.626 E8.22056
G1 X79.562 Y83.793 E8.38792
G1 X79.444 Y82.899 E8.55528
G1 X79.554 Y82.067 E8.71098
G1 X79.898 Y81.184 E8.88693
G1 X80.456 Y80.456 E9.05709
G1 X81.184 Y79.898 E9.22725
G1 X82.067 Y79.554 E9.40321
G1 X82.899 Y79.444 E9.55891
G1 X83.793 Y79.562 E9.72627
G1 X84.626 Y79.907 E9.89362
G1 X85.342 Y80.456 E10.06098
G1 X85.891 Y81.172 E10.22834
G1 X86.236 Y82.005 E10.39570
G1 X86.354 Y82.899 E10.56306
G1 X86.236 Y83.793 E10.73042
G1 X85.891 Y84.626 E10.89778
G1 X85.388 Y85.282 E11.05122
G1 X84.705 Y84.705 F7800.000
G1 F1800
G1 X84.176 Y85.111 E11.17496
G1 X83.560 Y85.366 E11.29870
G1 X82.899 Y85.453 E11.42244
G1 X82.238 Y85.366 E11.54618
G1 X81.622 Y85.111 E11.66992
G1 X81.093 Y84.705 E11.79366
G1 X80.687 Y84.176 E11.91740
G1 X80.432 Y83.560 E12.04114
G1 X80.345 Y82.899 E12.16488
G1 X80.425 Y82.291 E12.27875
G1 X80.684 Y81.626 E12.41109
G1 X81.093 Y81.093 E12.53583
G1 X81.626 Y80.684 E12.66058
G1 X82.291 Y80.425 E12.79291
G1 X82.899 Y80.345 E12.90678
G1 X83.560 Y80.432 E13.03052
G1 X84.176 Y80.687 E13.15426
G1 X84.705 Y81.093 E13.27800
G1 X85.111 Y81.622 E13.40174
G1 X85.366 Y82.238 E13.52548
G1 X85.453 Y82.899 E13.64922
G1 X85.366 Y83.560 E13.77296
G1 X85.111 Y84.176 E13.89670
G1 X84.751 Y84.646 E14.00652
G1 X84.705 Y84.705 F7800.000
G1 E12.00652 F2400.00000
G92 E0
G1 X112.746 Y82.899 F7800.000
G1 E2.00000 F2400.00000
G1 F1800
G1 X112.894 Y81.772 E2.21098
G1 X113.329 Y80.722 E2.42196
G1 X114.021 Y79.820 E2.63293
G1 X114.943 Y79.112 E2.84850
G1 X116.046 Y78.683 E3.06808
G1 X117.101 Y78.544 E3.26561
G1 X118.228 Y78.692 E3.47659
G1 X119.278 Y79.127 E3.68757
G1 X120.180 Y79.820 E3.89855
G1 X120.873 Y80.722 E4.10953
G1 X121.308 Y81.772 E4.32050
G1 X121.456 Y82.899 E4.53148
G1 X121.308 Y84.026 E4.74246
G1 X120.873 Y85.077 E4.95344
G1 X120.180 Y85.979 E5.16441
G1 X119.278 Y86.671 E5.37539
G1 X118.228 Y87.106 E5.58637
G1 X117.101 Y87.254 E5.79735
G1 X115.974 Y87.106 E6.00833
G1 X114.923 Y86.671 E6.21930
G1 X114.021 Y85.979 E6.43028
G1 X113.373 Y85.134 E6.62781
G1 X112.897 Y84.051 E6.84739
G1 X112.756 Y82.973 E7.04904
G1 X113.646 Y82.899 F7800.000
G1 F1800
G1 X113.764 Y82.005 E7.21640
G1 X114.109 Y81.172 E7.38376
G1 X114.658 Y80.456 E7.55112
G1 X115.385 Y79.898 E7.72128
G1 X116.269 Y79.554 E7.89723
G1 X117.101 Y79.444 E8.05294
G1 X117.995 Y79.562 E8.22030
G1 X118.828 Y79.907 E8.38765
G1 X119.544 Y80.456 E8.55501
G1 X120.093 Y81.172 E8.72237
G1 X120.438 Y82.005 E8.88973
G1 X120.556 Y82.899 E9.05709
G1 X120.438 Y83.793 E9.22445
G1 X120.093 Y84.626 E9.39181
G1 X119.544 Y85.342 E9.55917
G1 X118.828 Y85.891 E9.72653
G1 X117.995 Y86.236 E9.89388
G1 X117.101 Y86.354 E10.06124
G1 X116.207 Y86.236 E10.22860
G1 X115.373 Y85.891 E10.39596
G1 X114.658 Y85.342 E10.56332
G1 X114.147 Y84.676 E10.71902
G1 X113.766 Y83.808 E10.89498
G1 X113.656 Y82.973 E11.05122
G1 X114.547 Y82.899 F7800.000
G1 F1800
G1 X114.634 Y82.238 E11.17496
G1 X114.889 Y81.622 E11.29870
G1 X115.295 Y81.093 E11.42244
G1 X115.828 Y80.684 E11.54718
G1 X116.492 Y80.425 E11.67952
G1 X117.101 Y80.345 E11.79339
G1 X117.762 Y80.432 E11.91713
G1 X118.378 Y80.687 E12.04087
G1 X118.907 Y81.093 E12.16461
G1 X119.313 Y81.622 E12.28835
G1 X119.568 Y82.238 E12.41209
G1 X119.655 Y82.899 E12.53583
G1 X119.568 Y83.560 E12.65957
G1 X119.313 Y84.176 E12.78331
G1 X118.907 Y84.705 E12.90705
G1 X118.378 Y85.111 E13.03079
G1 X117.762 Y85.366 E13.15453
G1 X117.101 Y85.453 E13.27827
G1 X116.440 Y85.366 E13.40201
G1 X115.824 Y85.111 E13.52575
G1 X115.295 Y84.705 E13.64949
G1 X114.921 Y84.218 E13.76336
G1 X114.634 Y83.566 E13.89569
G1 X114.556 Y82.973 E14.00652
G1 X114.547 Y82.899 F7800.000
G1 E12.00652 F2400.00000
G92 E0
G1 X85.979 Y114.021 F7800.000
G1 E2.00000 F2400.00000
G1 F1800
G1 X86.671 Y114.923 E2.21098
G1 X87.106 Y115.974 E2.42195
G1 X87.254 Y117.101 E2.63293
G1 X87.106 Y118.228 E2.84391
G1 X86.671 Y119.278 E3.05489
G1 X85.979 Y120.180 E3.26587
G1 X85.077 Y120.873 E3.47685
G1 X84.003 Y121.317 E3.69242
G1 X82.827 Y121.447 E3.91200
G1 X81.772 Y121.308 E4.10953
G1 X80.722 Y120.873 E4.32050
G1 X79.820 Y120.180 E4.53148
G1 X79.172 Y119.336 E4.72901
G1 X78.696 Y118.253 E4.94859
G1 X78.544 Y117.101 E5.16416
G1 X78.692 Y115.974 E5.37514
G1 X79.127 Y114.923 E5.58612
G1 X79.820 Y114.021 E5.79710
G1 X80.741 Y113.314 E6.01267
G1 X81.844 Y112.885 E6.23225
G1 X82.899 Y112.746 E6.42978
G1 X84.026 Y112.894 E6.64076
G1 X85.077 Y113.329 E6.85173
G1 X85.919 Y113.976 E7.04879
G1 X85.342 Y114.658 F7800.000
G1 F1800
G1 X85.891 Y115.374 E7.21615
G1 X86.236 Y116.207 E7.38351
G1 X86.354 Y117.101 E7.55087
G1 X86.236 Y117.995 E7.71823
G1 X85.891 Y118.828 E7.88559
G1 X85.342 Y119.544 E8.05295
G1 X84.626 Y120.093 E8.22031
G1 X83.779 Y120.444 E8.39046
G1 X82.837 Y120.547 E8.56642
G1 X82.005 Y120.438 E8.72212
G1 X81.172 Y120.093 E8.88948
G1 X80.456 Y119.544 E9.05684
G1 X79.946 Y118.878 E9.21254
G1 X79.564 Y118.010 E9.38849
G1 X79.444 Y117.101 E9.55865
G1 X79.562 Y116.207 E9.72601
G1 X79.907 Y115.374 E9.89337
G1 X80.456 Y114.658 E10.06073
G1 X81.184 Y114.100 E10.23089
G1 X82.067 Y113.756 E10.40685
G1 X82.899 Y113.646 E10.56255
G1 X83.793 Y113.764 E10.72991
G1 X84.626 Y114.109 E10.89726
G1 X85.282 Y114.612 E11.05070
G1 X84.705 Y115.295 F7800.000
G1 F1800
G1 X85.111 Y115.824 E11.17444
G1 X85.366 Y116.440 E11.29818
G1 X85.453 Y117.101 E11.42193
G1 X85.366 Y117.762 E11.54567
G1 X85.111 Y118.378 E11.66941
G1 X84.705 Y118.907 E11.79315
G1 X84.176 Y119.313 E11.91689
G1 X83.555 Y119.570 E12.04163
G1 X82.846 Y119.648 E12.17397
G1 X82.238 Y119.568 E12.28784
G1 X81.622 Y119.313 E12.41158
G1 X81.093 Y118.907 E12.53532
G1 X80.719 Y118.420 E12.64919
G1 X80.433 Y117.767 E12.78152
G1 X80.345 Y117.101 E12.90627
G1 X80.432 Y116.440 E13.03001
G1 X80.687 Y115.824 E13.15375
G1 X81.093 Y115.295 E13.27749
G1 X81.626 Y114.885 E13.40223
G1 X82.291 Y114.627 E13.53456
G1 X82.899 Y114.547 E13.64843
G1 X83.560 Y114.634 E13.77218
G1 X84.176 Y114.889 E13.89591
G1 X84.646 Y115.249 E14.00574
G1 X84.705 Y115.295 F7800.000
G1 E12.00574 F2400.00000
G92 E0
G1 X72.285 Y120.539 F7800.000
G1 E2.00000 F2400.00000
G1 F1800
G1 X72.285 Y79.247 E9.66256
G1 X73.705 Y79.835 E9.94762
G1 X75.000 Y80.005 E10.19009
G1 X76.295 Y79.835 E10.43255
G1 X77.503 Y79.335 E10.67502
G1 X78.539 Y78.539 E10.91749
G1 X79.335 Y77.503 E11.15995
G1 X79.835 Y76.295 E11.40242
G1 X80.005 Y75.000 E11.64488
G1 X79.835 Y73.705 E11.88735
G1 X79.247 Y72.285 E12.17241
G1 X120.539 Y72.285 E19.83497
G1 X119.972 Y73.653 E20.10962
G1 X119.795 Y75.000 E20.36178
G1 X119.972 Y76.347 E20.61394
G1 X120.492 Y77.603 E20.86609
G1 X121.319 Y78.681 E21.11825
G1 X122.397 Y79.508 E21.37040
G1 X123.653 Y80.028 E21.62256
G1 X125.000 Y80.205 E21.87471
G1 X126.347 Y80.028 E22.12687
G1 X127.715 Y79.461 E22.40153
G1 X127.715 Y120.753 E30.06409
G1 X126.295 Y120.165 E30.34915
G1 X125.000 Y119.995 E30.59162
G1 X123.705 Y120.165 E30.83409
G1 X122.497 Y120.665 E31.07655
G1 X121.461 Y121.461 E31.31901
G1 X120.665 Y122.497 E31.56148
G1 X120.165 Y123.705 E31.80395
G1 X119.995 Y125.000 E32.04641
G1 X120.165 Y126.295 E32.28888
G1 X120.753 Y127.715 E32.57394
G1 X79.461 Y127.715 E40.23650
G1 X80.028 Y126.347 E40.51116
G1 X80.205 Y125.000 E40.76332
G1 X80.028 Y123.653 E41.01547
G1 X79.508 Y122.397 E41.26763
G1 X78.681 Y121.319 E41.51978
G1 X77.603 Y120.492 E41.77194
G1 X76.347 Y119.972 E42.02409
G1 X75.000 Y119.795 E42.27624
