; generated by Slic3r 1.3.0 on 2022-01-11 at 12:23:31

; external perimeters extrusion width = 0.55mm (5.57mm^3/s)
; perimeters extrusion width = 0.58mm (11.78mm^3/s)
; infill extrusion width = 0.58mm (15.71mm^3/s)
; solid infill extrusion width = 0.58mm (3.93mm^3/s)
; top infill extrusion width = 0.58mm (2.95mm^3/s)

M107
M190 S65 ; set bed temperature and wait for it to be reached
M104 S205 ; set temperature
G28 ; home all axes
G1 Z5 F5000 ; lift nozzle

; Filament gcode

M109 S205 ; set temperature and wait for it to be reached
G21 ; set units to millimeters
G90 ; use absolute coordinates
M82 ; use absolute distances for extrusion
G92 E0
G1 Z0.500 F7800.000
G1 E-2.00000 F2400.00000
G92 E0
G1 X74.650 Y75.675 F7800.000
G1 E2.00000 F2400.00000
G1 F1800
G1 X76.412 Y74.136 E2.43418
G1 X78.587 Y73.275 E2.86836
G1 X80.000 Y73.129 E3.13191
G1 X120.000 Y73.129 E10.55473
G1 X122.306 Y73.526 E10.98891
G1 X124.346 Y74.671 E11.42308
G1 X125.885 Y76.433 E11.85726
G1 X126.746 Y78.609 E12.29144
G1 X126.893 Y80.021 E12.55499
G1 X126.893 Y119.979 E19.96992
G1 X126.496 Y122.284 E20.40410
G1 X125.350 Y124.325 E20.83828
G1 X123.588 Y125.864 E21.27246
G1 X121.413 Y126.725 E21.70664
G1 X120.000 Y126.871 E21.97019
G1 X80.000 Y126.871 E29.39301
G1 X77.694 Y126.474 E29.82719
G1 X75.654 Y125.329 E30.26136
G1 X74.115 Y123.567 E30.69554
G1 X73.254 Y121.391 E31.12972
G1 X73.107 Y119.979 E31.39327
G1 X73.107 Y80.021 E38.80821
G1 X73.504 Y77.716 E39.24238
G1 X74.613 Y75.741 E39.66264
G1 E37.66264 F2400.00000
G92 E0
G1 X81.304 Y119.479 F7800.000
G1 E2.00000 F2400.00000
G1 F1800
G1 X80.500 Y119.479 E2.14922
G1 X80.500 Y118.672 E2.29898
G1 X80.864 Y118.549 E2.37027
G1 X81.111 Y118.872 E2.44576
G1 X81.428 Y119.116 E2.51995
G1 X81.328 Y119.408 E2.57719
G1 X80.848 Y119.274 F7800.000
G1 X82.015 Y118.941 F7800.000
G1 F1800
G1 X82.164 Y119.227 E2.62615
G1 F1800
G1 X82.313 Y119.513 E2.67854
G1 X82.988 Y119.550 E2.78845
G1 X83.561 Y119.513 E2.88187
G1 X83.710 Y119.225 E2.93451
G1 F1800
G1 X83.858 Y118.938 E2.98148
G1 E0.98148 F2400.00000
G92 E0
G1 X81.039 Y117.962 F7800.000
G1 E2.00000 F2400.00000
G1 F1800
G1 X80.925 Y117.901 E2.01786
G1 F1800
G1 X80.697 Y117.780 E2.05803
G1 F1800
G1 X80.470 Y117.658 E2.10254
G1 X80.451 Y117.376 E2.15146
G1 F1800
G1 X80.434 Y116.992 E2.21218
G1 F1800
G1 X80.470 Y116.449 E2.30636
G1 X80.497 Y116.434 E2.31170
G1 F1800
G1 X80.552 Y116.405 E2.32123
G1 F1800
G1 X80.606 Y116.376 E2.32960
G1 F1800
G1 X80.662 Y116.350 E2.33684
G1 F1800
G1 X81.059 Y116.153 E2.38108
G1 E0.38108 F2400.00000
G92 E0
G1 X86.033 Y118.586 F7800.000
G1 E2.00000 F2400.00000
G1 F1800
G1 X86.294 Y117.959 E2.12604
G1 X86.414 Y117.059 E2.29450
G1 X86.297 Y116.159 E2.46295
G1 X86.136 Y115.770 E2.54112
G1 X86.462 Y115.520 E2.61732
G1 X89.634 Y117.954 E3.35927
G1 X90.120 Y118.155 E3.45680
G1 X90.034 Y118.586 E3.53837
G1 X86.108 Y118.586 E4.26703
G1 E2.26703 F2400.00000
G92 E0
G1 X84.222 Y113.854 F7800.000
G1 E2.00000 F2400.00000
G1 F1800
G1 X83.843 Y113.696 E2.07619
G1 X82.943 Y113.576 E2.24465
G1 X82.043 Y113.692 E2.41310
G1 X81.393 Y113.960 E2.54353
G1 X81.393 Y109.915 E3.29430
G1 X81.824 Y109.829 E3.37587
G1 X82.046 Y110.366 E3.48370
G1 X84.472 Y113.527 E4.22326
G1 X84.267 Y113.794 E4.28568
G1 E2.28568 F2400.00000
G92 E0
G1 X80.500 Y115.434 F7800.000
G1 E2.00000 F2400.00000
G1 F1800
G1 X80.500 Y105.427 E3.85716
G1 X80.931 Y105.341 E3.93873
G1 X82.826 Y109.915 E4.85758
G1 X85.977 Y114.023 E5.81826
G1 X90.085 Y117.174 E6.77894
G1 X94.608 Y119.048 E7.68748
G1 X94.522 Y119.479 E7.76905
G1 X84.569 Y119.479 E9.61602
G1 X84.446 Y119.115 E9.68731
G1 X84.755 Y118.878 E9.75956
G1 X85.166 Y118.345 E9.88439
G1 X85.424 Y117.724 E10.00923
G1 X85.513 Y117.058 E10.13407
G1 X85.427 Y116.390 E10.25890
G1 X85.170 Y115.769 E10.38374
G1 X84.762 Y115.234 E10.50858
G1 X84.229 Y114.824 E10.63341
G1 X83.608 Y114.565 E10.75825
G1 X82.941 Y114.476 E10.88309
G1 X82.274 Y114.563 E11.00792
G1 X81.652 Y114.819 E11.13276
G1 X81.118 Y115.227 E11.25760
G1 X80.863 Y115.558 E11.33502
G1 X80.571 Y115.459 E11.39226
G1 X80.702 Y114.977 F7800.000
G1 E9.39226 F2400.00000
G92 E0
G1 X80.656 Y104.886 F7800.000
G1 E2.00000 F2400.00000
G1 F1800
G1 X80.629 Y104.482 E2.09436
G1 F1800
G1 X80.576 Y103.675 E2.26757
G1 F1800
G1 X80.523 Y102.868 E2.42526
G1 F1800
G1 X80.470 Y102.062 E2.56745
G1 F1800
G1 X80.418 Y101.255 E2.69413
G1 F1800
G1 X80.365 Y100.448 E2.80530
G1 F1800
G1 X80.338 Y99.956 E2.86356
G1 F1800
G1 X80.391 Y99.149 E2.97473
G1 F1800
G1 X80.444 Y98.342 E3.10141
G1 F1800
G1 X80.497 Y97.535 E3.24359
G1 F1800
G1 X80.550 Y96.728 E3.40129
G1 F1800
G1 X80.603 Y95.921 E3.57450
G1 F1800
G1 X80.656 Y95.114 E3.76322
G1 E1.76322 F2400.00000
G92 E0
G1 X81.036 Y83.855 F7800.000
G1 E2.00000 F2400.00000
G1 F1800
G1 X80.922 Y83.794 E2.01740
G1 F1800
G1 X80.696 Y83.673 E2.05701
G1 F1800
G1 X80.470 Y83.551 E2.10145
G1 X80.452 Y83.279 E2.14869
G1 F1800
G1 X80.434 Y82.895 E2.20941
G1 F1800
G1 X80.470 Y82.342 E2.30532
G1 X80.583 Y82.281 E2.32762
G1 F1800
G1 X80.811 Y82.160 E2.36779
G1 F1800
G1 X81.039 Y82.038 E2.40352
G1 X80.864 Y81.451 F7800.000
G1 F1800
G1 X80.500 Y81.328 E2.47481
G1 X80.500 Y80.521 E2.62456
G1 X81.304 Y80.521 E2.77378
G1 X81.428 Y80.884 E2.84494
G1 X81.111 Y81.128 E2.91913
G1 X80.909 Y81.392 E2.98071
G1 X80.657 Y81.128 F7800.000
G1 X82.015 Y81.059 F7800.000
G1 F1800
G1 X82.164 Y80.773 E3.02967
G1 F1800
G1 X82.313 Y80.487 E3.08206
G1 X82.988 Y80.450 E3.19197
G1 X83.561 Y80.487 E3.28538
G1 X83.710 Y80.775 E3.33802
G1 F1800
G1 X83.858 Y81.062 E3.38499
G1 E1.38499 F2400.00000
G92 E0
G1 X81.393 Y86.040 F7800.000
G1 E2.00000 F2400.00000
G1 F1800
G1 X82.043 Y86.308 E2.13043
G1 X82.943 Y86.424 E2.29888
G1 X83.843 Y86.304 E2.46734
G1 X84.222 Y86.146 E2.54353
G1 X84.472 Y86.473 E2.61987
G1 X82.046 Y89.634 E3.35942
G1 X81.824 Y90.171 E3.46726
G1 X81.393 Y90.085 E3.54883
G1 X81.393 Y86.115 E4.28568
G1 E2.28568 F2400.00000
G92 E0
G1 X86.142 Y84.218 F7800.000
G1 E2.00000 F2400.00000
G1 F1800
G1 X86.297 Y83.841 E2.07566
G1 X86.414 Y82.941 E2.24411
G1 X86.294 Y82.041 E2.41257
G1 X86.033 Y81.414 E2.53861
G1 X89.970 Y81.414 E3.26927
G1 X90.056 Y81.845 E3.35084
G1 X89.619 Y82.026 E3.43861
G1 X86.469 Y84.467 E4.17814
G1 X86.201 Y84.263 E4.24061
G1 E2.24061 F2400.00000
G92 E0
G1 X84.569 Y80.521 F7800.000
G1 E2.00000 F2400.00000
G1 F1800
G1 X94.458 Y80.521 E3.83506
G1 X94.544 Y80.952 E3.91663
G1 X90.071 Y82.805 E4.81500
G1 X85.977 Y85.978 E5.77629
G1 X82.826 Y90.085 E6.73674
G1 X80.931 Y94.659 E7.65559
G1 X80.500 Y94.573 E7.73716
G1 X80.500 Y84.566 E9.59431
G1 X80.863 Y84.442 E9.66547
G1 X81.118 Y84.773 E9.74289
G1 X81.652 Y85.181 E9.86773
G1 X82.274 Y85.437 E9.99257
G1 X82.941 Y85.524 E10.11740
G1 X83.608 Y85.435 E10.24224
G1 X84.229 Y85.176 E10.36708
G1 X84.762 Y84.766 E10.49191
G1 X85.170 Y84.231 E10.61675
G1 X85.427 Y83.610 E10.74159
G1 X85.513 Y82.942 E10.86642
G1 X85.424 Y82.276 E10.99126
G1 X85.166 Y81.655 E11.11610
G1 X84.755 Y81.122 E11.24093
G1 X84.446 Y80.885 E11.31318
G1 X84.545 Y80.592 E11.37055
G1 X85.025 Y80.727 F7800.000
G1 E9.37055 F2400.00000
G92 E0
G1 X94.996 Y80.662 F7800.000
G1 E2.00000 F2400.00000
G1 F1800
G1 X95.822 Y80.607 E2.18037
G1 F1800
G1 X96.649 Y80.553 E2.34455
G1 F1800
G1 X97.476 Y80.499 E2.49255
G1 F1800
G1 X98.303 Y80.445 E2.62436
G1 F1800
G1 X99.130 Y80.391 E2.73999
G1 F1800
G1 X99.751 Y80.350 E2.81475
G1 F1800
G1 X100.041 Y80.336 E2.84628
G1 F1800
G1 X100.868 Y80.391 E2.95279
G1 F1800
G1 X101.696 Y80.445 E3.07570
G1 F1800
G1 X102.523 Y80.499 E3.21503
G1 F1800
G1 X103.350 Y80.553 E3.37077
G1 F1800
G1 X104.177 Y80.607 E3.54291
G1 F1800
G1 X105.004 Y80.662 E3.73147
G1 E1.73147 F2400.00000
G92 E0
G1 X115.573 Y86.492 F7800.000
G1 E2.00000 F2400.00000
G1 F1800
G1 X115.824 Y86.165 E2.07634
G1 X116.157 Y86.304 E2.14338
G1 X117.057 Y86.424 E2.31184
G1 X117.957 Y86.308 E2.48029
G1 X118.601 Y86.042 E2.60944
G1 X118.597 Y89.996 E3.34319
G1 X118.166 Y90.082 E3.42471
G1 X117.975 Y89.622 E3.51709
G1 X115.619 Y86.551 E4.23540
G1 E2.23540 F2400.00000
G92 E0
G1 X113.519 Y84.435 F7800.000
G1 E2.00000 F2400.00000
G1 F1800
G1 X110.378 Y82.025 E2.73468
G1 X109.944 Y81.845 E2.82181
G1 X110.030 Y81.414 E2.90338
G1 X113.967 Y81.414 E3.63404
G1 X113.706 Y82.041 E3.76008
G1 X113.586 Y82.941 E3.92854
G1 X113.703 Y83.841 E4.09700
G1 X113.845 Y84.185 E4.16608
G1 X113.578 Y84.389 E4.22836
G1 E2.22836 F2400.00000
G92 E0
G1 X115.554 Y80.885 F7800.000
G1 E2.00000 F2400.00000
G1 F1800
G1 X115.245 Y81.122 E2.07225
G1 X114.834 Y81.655 E2.19708
G1 X114.576 Y82.276 E2.32192
G1 X114.487 Y82.942 E2.44675
G1 X114.573 Y83.610 E2.57159
G1 X114.830 Y84.231 E2.69643
G1 X115.238 Y84.766 E2.82126
G1 X115.771 Y85.176 E2.94610
G1 X115.894 Y85.228 E2.97087
G1 X116.392 Y85.435 E3.07094
G1 X117.059 Y85.524 E3.19577
G1 X117.726 Y85.437 E3.32061
G1 X118.348 Y85.181 E3.44545
G1 X118.882 Y84.773 E3.57028
G1 X119.132 Y84.448 E3.64619
G1 X119.495 Y84.572 E3.71739
G1 X119.485 Y94.473 E5.55463
G1 X119.054 Y94.558 E5.63616
G1 X117.195 Y90.072 E6.53724
G1 X114.040 Y85.960 E7.49912
G1 X109.928 Y82.805 E8.46100
G1 X105.456 Y80.952 E9.35914
G1 X105.542 Y80.521 E9.44071
G1 X115.431 Y80.521 E11.27577
G1 X115.530 Y80.814 E11.33314
G1 X115.199 Y81.045 F7800.000
G1 X116.142 Y81.062 F7800.000
G1 F1800
G1 X116.216 Y80.918 E11.35663
G1 F1800
G1 X116.439 Y80.487 E11.43514
G1 X117.012 Y80.450 E11.52803
G1 X117.687 Y80.487 E11.63731
G1 X117.836 Y80.773 E11.68941
G1 F1800
G1 X117.985 Y81.059 E11.73523
G1 X118.960 Y82.037 F7800.000
G1 F1800
G1 X119.187 Y82.158 E11.77108
G1 F1800
G1 X119.415 Y82.279 E11.81125
G1 F1800
G1 X119.529 Y82.339 E11.83349
G1 X119.565 Y82.895 E11.92964
G1 F1800
G1 X119.546 Y83.279 E11.99004
G1 F1800
G1 X119.528 Y83.560 E12.03860
G1 X119.477 Y83.587 E12.04849
G1 F1800
G1 X119.426 Y83.614 E12.05740
G1 F1800
G1 X119.239 Y83.700 E12.08581
G1 F1800
G1 X118.915 Y83.846 E12.12855
G1 E10.12855 F2400.00000
G92 E0
G1 X118.572 Y80.884 F7800.000
G1 E2.00000 F2400.00000
G1 F1800
G1 X118.696 Y80.521 E2.07116
G1 X119.499 Y80.521 E2.22028
G1 X119.499 Y81.327 E2.36978
G1 X119.135 Y81.450 E2.44103
G1 X118.889 Y81.128 E2.51614
G1 X118.632 Y80.930 E2.57642
G1 X118.896 Y80.679 F7800.000
G1 E0.57642 F2400.00000
G92 E0
G1 X119.342 Y95.011 F7800.000
G1 E2.00000 F2400.00000
G1 F1800
G1 X119.407 Y96.007 E2.22765
G1 F1800
G1 X119.472 Y97.004 E2.43462
G1 F1800
G1 X119.527 Y97.854 E2.59351
G1 F1800
G1 X119.573 Y98.555 E2.71068
G1 F1800
G1 X119.620 Y99.257 E2.81450
G1 F1800
G1 X119.666 Y99.959 E2.90496
G1 F1800
G1 X119.639 Y100.453 E2.95927
G1 F1800
G1 X119.586 Y101.276 E3.06609
G1 F1800
G1 X119.532 Y102.100 E3.18923
G1 F1800
G1 X119.478 Y102.923 E3.32872
G1 F1800
G1 X119.425 Y103.746 E3.48453
G1 F1800
G1 X119.371 Y104.569 E3.65668
G1 F1800
G1 X119.344 Y104.981 E3.75092
G1 E1.75092 F2400.00000
G92 E0
G1 X113.519 Y115.565 F7800.000
G1 E2.00000 F2400.00000
G1 F1800
G1 X113.845 Y115.815 E2.07620
G1 X113.703 Y116.159 E2.14529
G1 X113.586 Y117.059 E2.31374
G1 X113.706 Y117.959 E2.48219
G1 X113.967 Y118.586 E2.60823
G1 X110.102 Y118.586 E3.32560
G1 X109.993 Y118.194 E3.40111
G1 X110.462 Y117.911 E3.50278
G1 X113.459 Y115.611 E4.20397
G1 E2.20397 F2400.00000
G92 E0
G1 X115.824 Y113.835 F7800.000
G1 E2.00000 F2400.00000
G1 F1800
G1 X115.573 Y113.508 E2.07634
G1 X117.975 Y110.378 E2.80857
G1 X118.168 Y109.913 E2.90206
G1 X118.599 Y109.998 E2.98360
G1 X118.602 Y113.958 E3.71848
G1 X117.957 Y113.692 E3.84791
G1 X117.057 Y113.576 E4.01636
G1 X116.157 Y113.696 E4.18482
G1 X115.893 Y113.806 E4.23795
G1 E2.23795 F2400.00000
G92 E0
G1 X119.496 Y115.429 F7800.000
G1 E2.00000 F2400.00000
G1 F1800
G1 X119.133 Y115.553 E2.07119
G1 X118.882 Y115.227 E2.14744
G1 X118.348 Y114.819 E2.27227
G1 X117.726 Y114.563 E2.39711
G1 X117.059 Y114.476 E2.52194
G1 X116.392 Y114.565 E2.64678
G1 X115.771 Y114.824 E2.77162
G1 X115.238 Y115.234 E2.89646
G1 X114.830 Y115.769 E3.02129
G1 X114.624 Y116.267 E3.12136
G1 X114.573 Y116.390 E3.14613
G1 X114.487 Y117.058 E3.27096
G1 X114.576 Y117.724 E3.39580
G1 X114.834 Y118.345 E3.52064
G1 X115.245 Y118.878 E3.64547
G1 X115.554 Y119.115 E3.71772
G1 X115.431 Y119.479 E3.78901
G1 X105.683 Y119.479 E5.59789
G1 X105.598 Y119.046 E5.67969
G1 X109.469 Y117.467 E6.45546
G1 X109.958 Y117.172 E6.56138
G1 X114.040 Y114.040 E7.51623
G1 X117.195 Y109.928 E8.47811
G1 X119.057 Y105.434 E9.38083
G1 X119.488 Y105.519 E9.46236
G1 X119.496 Y115.354 E11.28746
G1 X119.129 Y115.320 F7800.000
G1 X118.960 Y116.140 F7800.000
G1 F1800
G1 X119.074 Y116.201 E11.30512
G1 F1800
G1 X119.301 Y116.321 E11.34499
G1 F1800
G1 X119.528 Y116.442 E11.38934
G1 X119.547 Y116.721 E11.43761
G1 F1800
G1 X119.565 Y117.105 E11.49808
G1 F1800
G1 X119.529 Y117.660 E11.59418
G1 X119.415 Y117.721 E11.61643
G1 F1800
G1 X119.188 Y117.842 E11.65660
G1 F1800
G1 X118.960 Y117.963 E11.69242
G1 X119.135 Y118.550 F7800.000
G1 F1800
G1 X119.499 Y118.673 E11.76369
G1 X119.500 Y119.479 E11.91324
G1 X118.696 Y119.479 E12.06239
G1 X118.572 Y119.116 E12.13355
G1 X118.889 Y118.872 E12.20774
G1 X119.090 Y118.609 E12.26902
G1 X119.342 Y118.873 F7800.000
G1 X117.985 Y118.941 F7800.000
G1 F1800
G1 X117.836 Y119.227 E12.31483
G1 F1800
G1 X117.687 Y119.513 E12.36693
G1 X117.012 Y119.550 E12.47621
G1 X116.439 Y119.513 E12.56910
G1 X116.216 Y119.082 E12.64761
G1 F1800
G1 X116.142 Y118.938 E12.67110
G1 E10.67110 F2400.00000
G92 E0
G1 X105.149 Y119.354 F7800.000
G1 E2.00000 F2400.00000
G1 F1800
G1 X104.313 Y119.409 E2.18541
G1 F1800
G1 X103.476 Y119.464 E2.35414
G1 F1800
G1 X102.640 Y119.519 E2.50618
G1 F1800
G1 X101.803 Y119.574 E2.64155
G1 F1800
G1 X100.967 Y119.629 E2.76023
G1 F1800
G1 X100.507 Y119.658 E2.81627
G1 F1800
G1 X100.085 Y119.658 E2.86322
G1 X99.627 Y119.630 E2.91421
G1 F1800
G1 X98.797 Y119.575 E3.02351
G1 F1800
G1 X97.967 Y119.521 E3.14931
G1 F1800
G1 X97.137 Y119.466 E3.29162
G1 F1800
G1 X96.307 Y119.412 E3.45044
G1 F1800
G1 X95.476 Y119.358 E3.62577
G1 F1800
G1 X95.061 Y119.330 E3.72168
G1 X93.162 Y118.984 F7800.000
G1 F1800
G1 X92.851 Y118.922 E3.72579
G1 F1800
G1 X92.539 Y118.860 E3.73644
G1 F1800
G1 X92.228 Y118.798 E3.75362
G1 F1800
G1 X91.916 Y118.736 E3.77734
G1 F1800
G1 X91.605 Y118.674 E3.80760
G1 F1800
G1 X91.293 Y118.612 E3.84440
G1 F1800
G1 X90.982 Y118.550 E3.88774
G1 F1800
G1 X90.671 Y118.489 E3.93761
G1 F1800
G1 X90.515 Y118.458 E3.96582
G1 E1.96582 F2400.00000
G92 E0
G1 X87.721 Y118.140 F7800.000
G1 E2.00000 F2400.00000
G1 F1800
G1 X86.865 Y116.392 E2.24338
G1 X86.029 Y115.289 F7800.000
G1 F1800
G1 X85.616 Y114.875 E2.34365
G1 F1800
G1 X84.912 Y114.170 E2.49918
G1 F1800
G1 X84.703 Y113.960 E2.55008
G1 X83.602 Y113.127 F7800.000
G1 F1800
G1 X81.839 Y112.260 E2.77290
G1 X82.784 Y112.060 F7800.000
G1 F1800
G1 X81.839 Y113.281 E2.78837
G1 E0.78837 F2400.00000
G92 E0
G1 X81.521 Y109.434 F7800.000
G1 E2.00000 F2400.00000
G1 F1800
G1 X81.459 Y109.122 E2.05641
G1 F1800
G1 X81.397 Y108.811 E2.10629
G1 F1800
G1 X81.335 Y108.500 E2.14963
G1 F1800
G1 X81.273 Y108.188 E2.18642
G1 F1800
G1 X81.211 Y107.877 E2.21669
G1 F1800
G1 X81.150 Y107.565 E2.24041
G1 F1800
G1 X81.088 Y107.254 E2.25759
G1 F1800
G1 X81.026 Y106.942 E2.26824
G1 F1800
G1 X80.995 Y106.787 E2.27029
G1 E0.27029 F2400.00000
G92 E0
G1 X80.995 Y93.213 F7800.000
G1 E2.00000 F2400.00000
G1 F1800
G1 X81.026 Y93.058 E2.00205
G1 F1800
G1 X81.088 Y92.746 E2.01270
G1 F1800
G1 X81.150 Y92.435 E2.02988
G1 F1800
G1 X81.211 Y92.123 E2.05361
G1 F1800
G1 X81.273 Y91.812 E2.08387
G1 F1800
G1 X81.335 Y91.500 E2.12066
G1 F1800
G1 X81.397 Y91.189 E2.16400
G1 F1800
G1 X81.459 Y90.878 E2.21388
G1 F1800
G1 X81.521 Y90.566 E2.27029
G1 E0.27029 F2400.00000
G92 E0
G1 X81.839 Y87.740 F7800.000
G1 E2.00000 F2400.00000
G1 F1800
G1 X83.602 Y86.873 E2.22282
G1 X82.784 Y87.940 F7800.000
G1 F1800
G1 X81.839 Y86.719 E2.23828
G1 E0.23828 F2400.00000
G92 E0
G1 X84.703 Y86.040 F7800.000
G1 E2.00000 F2400.00000
G1 F1800
G1 X84.912 Y85.830 E2.05083
G1 F1800
G1 X85.618 Y85.122 E2.20715
G1 F1800
G1 X86.038 Y84.700 E2.30933
G1 X86.865 Y83.596 F7800.000
G1 F1800
G1 X87.709 Y81.860 E2.54338
G1 E0.54338 F2400.00000
G92 E0
G1 X112.294 Y81.860 F7800.000
G1 E2.00000 F2400.00000
G1 F1800
G1 X113.135 Y83.578 E2.22605
G1 X113.947 Y84.669 F7800.000
G1 F1800
